icons/svg/shopping/shoe_repair.svg

<?xml version="1.0" encoding="UTF-8" standalone="no"?>
<!-- Created with Inkscape (http://www.inkscape.org/) -->

<svg
   xmlns:dc="http://purl.org/dc/elements/1.1/"
   xmlns:cc="http://creativecommons.org/ns#"
   xmlns:rdf="http://www.w3.org/1999/02/22-rdf-syntax-ns#"
   xmlns:svg="http://www.w3.org/2000/svg"
   xmlns="http://www.w3.org/2000/svg"
   xmlns:sodipodi="http://sodipodi.sourceforge.net/DTD/sodipodi-0.dtd"
   xmlns:inkscape="http://www.inkscape.org/namespaces/inkscape"
   version="1.0"
   width="580"
   height="580"
   id="svg2"
   sodipodi:version="0.32"
   inkscape:version="0.92.3 (2405546, 2018-03-11)"
   sodipodi:docname="shoe_repair.svg"
   inkscape:output_extension="org.inkscape.output.svg.inkscape">
  <metadata
     id="metadata2975">
    <rdf:RDF>
      <cc:Work
         rdf:about="">
        <dc:format>image/svg+xml</dc:format>
        <dc:type
           rdf:resource="http://purl.org/dc/dcmitype/StillImage" />
        <dc:title />
      </cc:Work>
    </rdf:RDF>
  </metadata>
  <sodipodi:namedview
     inkscape:window-height="1006"
     inkscape:window-width="1920"
     inkscape:pageshadow="2"
     inkscape:pageopacity="0.0"
     guidetolerance="10.0"
     gridtolerance="10.0"
     objecttolerance="10.0"
     borderopacity="1.0"
     bordercolor="#666666"
     pagecolor="#ffffff"
     id="base"
     inkscape:zoom="0.90509664"
     inkscape:cx="211.9618"
     inkscape:cy="328.45905"
     inkscape:window-x="1920"
     inkscape:window-y="0"
     inkscape:current-layer="svg2"
     showgrid="false"
     inkscape:window-maximized="1" />
  <defs
     id="defs4">
    <inkscape:perspective
       sodipodi:type="inkscape:persp3d"
       inkscape:vp_x="17.187501 : 317.73438 : 1"
       inkscape:vp_y="0 : 1000 : 0"
       inkscape:vp_z="597.1875 : 317.73438 : 1"
       inkscape:persp3d-origin="307.1875 : 221.06771 : 1"
       id="perspective2441" />
    <inkscape:perspective
       id="perspective2466"
       inkscape:persp3d-origin="372.04724 : 350.78739 : 1"
       inkscape:vp_z="744.09448 : 526.18109 : 1"
       inkscape:vp_y="0 : 1000 : 0"
       inkscape:vp_x="0 : 526.18109 : 1"
       sodipodi:type="inkscape:persp3d" />
    <inkscape:perspective
       id="perspective3333"
       inkscape:persp3d-origin="372.04724 : 350.78739 : 1"
       inkscape:vp_z="744.09448 : 526.18109 : 1"
       inkscape:vp_y="0 : 1000 : 0"
       inkscape:vp_x="0 : 526.18109 : 1"
       sodipodi:type="inkscape:persp3d" />
    <inkscape:perspective
       id="perspective3401"
       inkscape:persp3d-origin="372.04724 : 350.78739 : 1"
       inkscape:vp_z="744.09448 : 526.18109 : 1"
       inkscape:vp_y="0 : 1000 : 0"
       inkscape:vp_x="0 : 526.18109 : 1"
       sodipodi:type="inkscape:persp3d" />
    <inkscape:perspective
       id="perspective3464"
       inkscape:persp3d-origin="372.04724 : 350.78739 : 1"
       inkscape:vp_z="744.09448 : 526.18109 : 1"
       inkscape:vp_y="0 : 1000 : 0"
       inkscape:vp_x="0 : 526.18109 : 1"
       sodipodi:type="inkscape:persp3d" />
    <inkscape:perspective
       id="perspective3581"
       inkscape:persp3d-origin="225 : 150 : 1"
       inkscape:vp_z="450 : 225 : 1"
       inkscape:vp_y="0 : 1000 : 0"
       inkscape:vp_x="0 : 225 : 1"
       sodipodi:type="inkscape:persp3d" />
    <inkscape:perspective
       id="perspective4312"
       inkscape:persp3d-origin="225 : 150 : 1"
       inkscape:vp_z="450 : 225 : 1"
       inkscape:vp_y="0 : 1000 : 0"
       inkscape:vp_x="0 : 225 : 1"
       sodipodi:type="inkscape:persp3d" />
    <inkscape:perspective
       id="perspective8860"
       inkscape:persp3d-origin="372.04724 : 350.78739 : 1"
       inkscape:vp_z="744.09448 : 526.18109 : 1"
       inkscape:vp_y="0 : 1000 : 0"
       inkscape:vp_x="0 : 526.18109 : 1"
       sodipodi:type="inkscape:persp3d" />
    <inkscape:perspective
       id="perspective8887"
       inkscape:persp3d-origin="372.04724 : 350.78739 : 1"
       inkscape:vp_z="744.09448 : 526.18109 : 1"
       inkscape:vp_y="0 : 1000 : 0"
       inkscape:vp_x="0 : 526.18109 : 1"
       sodipodi:type="inkscape:persp3d" />
    <inkscape:perspective
       sodipodi:type="inkscape:persp3d"
       inkscape:vp_x="0 : 16 : 1"
       inkscape:vp_y="0 : 1000 : 0"
       inkscape:vp_z="32 : 16 : 1"
       inkscape:persp3d-origin="16 : 10.666667 : 1"
       id="perspective4904" />
    <inkscape:perspective
       sodipodi:type="inkscape:persp3d"
       inkscape:vp_x="0 : 6 : 1"
       inkscape:vp_y="0 : 1000 : 0"
       inkscape:vp_z="12 : 6 : 1"
       inkscape:persp3d-origin="6 : 4 : 1"
       id="perspective4668" />
    <inkscape:perspective
       sodipodi:type="inkscape:persp3d"
       inkscape:vp_x="0 : 526.18109 : 1"
       inkscape:vp_y="0 : 1000 : 0"
       inkscape:vp_z="744.09448 : 526.18109 : 1"
       inkscape:persp3d-origin="372.04724 : 350.78739 : 1"
       id="perspective4471" />
    <symbol
       id="symbol-university"
       viewBox="244.5 110 489 219.9">
      <path
         d="M79,43l57,119c0,0,21-96,104-96s124,106,124,106l43-133l82-17L0,17L79,43z"
         id="path4460" />
      <path
         fill="none"
         stroke="#000000"
         stroke-width="20"
         d="M94,176l-21,39"
         id="path4462" />
      <path
         d="M300,19c0,10.5-22.6,19-50.5,19S199,29.5,199,19s22.6-19,50.5-19S300,8.5,300,19z"
         id="path4464" />
      <path
         ill="none"
         stroke="#000000"
         stroke-width="20"
         d="M112,216l-16-38L64,88c0,0-9-8-4-35s16-24,16-24"
         id="path4466" />
    </symbol>
    <inkscape:perspective
       sodipodi:type="inkscape:persp3d"
       inkscape:vp_x="0 : 30 : 1"
       inkscape:vp_y="0 : 1000 : 0"
       inkscape:vp_z="60 : 30 : 1"
       inkscape:persp3d-origin="30 : 20 : 1"
       id="perspective3452" />
    <inkscape:perspective
       id="perspective9479"
       inkscape:persp3d-origin="290 : 193.33333 : 1"
       inkscape:vp_z="580 : 290 : 1"
       inkscape:vp_y="0 : 1000 : 0"
       inkscape:vp_x="0 : 290 : 1"
       sodipodi:type="inkscape:persp3d" />
    <inkscape:perspective
       id="perspective9690"
       inkscape:persp3d-origin="372.04724 : 350.78739 : 1"
       inkscape:vp_z="744.09448 : 526.18109 : 1"
       inkscape:vp_y="0 : 1000 : 0"
       inkscape:vp_x="0 : 526.18109 : 1"
       sodipodi:type="inkscape:persp3d" />
    <inkscape:perspective
       sodipodi:type="inkscape:persp3d"
       inkscape:vp_x="0 : 290 : 1"
       inkscape:vp_y="0 : 1000 : 0"
       inkscape:vp_z="580 : 290 : 1"
       inkscape:persp3d-origin="290 : 193.33333 : 1"
       id="perspective9819" />
    <inkscape:perspective
       id="perspective9817"
       inkscape:persp3d-origin="30 : 20 : 1"
       inkscape:vp_z="60 : 30 : 1"
       inkscape:vp_y="0 : 1000 : 0"
       inkscape:vp_x="0 : 30 : 1"
       sodipodi:type="inkscape:persp3d" />
    <symbol
       viewBox="244.5 110 489 219.9"
       id="symbol9807">
      <path
         id="path9809"
         d="M79,43l57,119c0,0,21-96,104-96s124,106,124,106l43-133l82-17L0,17L79,43z" />
      <path
         id="path9811"
         d="M94,176l-21,39"
         stroke-width="20"
         stroke="#000000"
         fill="none" />
      <path
         id="path9813"
         d="M300,19c0,10.5-22.6,19-50.5,19S199,29.5,199,19s22.6-19,50.5-19S300,8.5,300,19z" />
      <path
         id="path9815"
         d="M112,216l-16-38L64,88c0,0-9-8-4-35s16-24,16-24"
         stroke-width="20"
         stroke="#000000"
         ill="none" />
    </symbol>
    <inkscape:perspective
       id="perspective9805"
       inkscape:persp3d-origin="372.04724 : 350.78739 : 1"
       inkscape:vp_z="744.09448 : 526.18109 : 1"
       inkscape:vp_y="0 : 1000 : 0"
       inkscape:vp_x="0 : 526.18109 : 1"
       sodipodi:type="inkscape:persp3d" />
    <inkscape:perspective
       id="perspective9803"
       inkscape:persp3d-origin="6 : 4 : 1"
       inkscape:vp_z="12 : 6 : 1"
       inkscape:vp_y="0 : 1000 : 0"
       inkscape:vp_x="0 : 6 : 1"
       sodipodi:type="inkscape:persp3d" />
    <inkscape:perspective
       id="perspective9801"
       inkscape:persp3d-origin="16 : 10.666667 : 1"
       inkscape:vp_z="32 : 16 : 1"
       inkscape:vp_y="0 : 1000 : 0"
       inkscape:vp_x="0 : 16 : 1"
       sodipodi:type="inkscape:persp3d" />
    <inkscape:perspective
       sodipodi:type="inkscape:persp3d"
       inkscape:vp_x="0 : 526.18109 : 1"
       inkscape:vp_y="0 : 1000 : 0"
       inkscape:vp_z="744.09448 : 526.18109 : 1"
       inkscape:persp3d-origin="372.04724 : 350.78739 : 1"
       id="perspective9799" />
    <inkscape:perspective
       sodipodi:type="inkscape:persp3d"
       inkscape:vp_x="0 : 526.18109 : 1"
       inkscape:vp_y="0 : 1000 : 0"
       inkscape:vp_z="744.09448 : 526.18109 : 1"
       inkscape:persp3d-origin="372.04724 : 350.78739 : 1"
       id="perspective9797" />
    <inkscape:perspective
       sodipodi:type="inkscape:persp3d"
       inkscape:vp_x="0 : 225 : 1"
       inkscape:vp_y="0 : 1000 : 0"
       inkscape:vp_z="450 : 225 : 1"
       inkscape:persp3d-origin="225 : 150 : 1"
       id="perspective9795" />
    <inkscape:perspective
       sodipodi:type="inkscape:persp3d"
       inkscape:vp_x="0 : 225 : 1"
       inkscape:vp_y="0 : 1000 : 0"
       inkscape:vp_z="450 : 225 : 1"
       inkscape:persp3d-origin="225 : 150 : 1"
       id="perspective9793" />
    <inkscape:perspective
       sodipodi:type="inkscape:persp3d"
       inkscape:vp_x="0 : 526.18109 : 1"
       inkscape:vp_y="0 : 1000 : 0"
       inkscape:vp_z="744.09448 : 526.18109 : 1"
       inkscape:persp3d-origin="372.04724 : 350.78739 : 1"
       id="perspective9791" />
    <inkscape:perspective
       sodipodi:type="inkscape:persp3d"
       inkscape:vp_x="0 : 526.18109 : 1"
       inkscape:vp_y="0 : 1000 : 0"
       inkscape:vp_z="744.09448 : 526.18109 : 1"
       inkscape:persp3d-origin="372.04724 : 350.78739 : 1"
       id="perspective9789" />
    <inkscape:perspective
       sodipodi:type="inkscape:persp3d"
       inkscape:vp_x="0 : 526.18109 : 1"
       inkscape:vp_y="0 : 1000 : 0"
       inkscape:vp_z="744.09448 : 526.18109 : 1"
       inkscape:persp3d-origin="372.04724 : 350.78739 : 1"
       id="perspective9787" />
    <inkscape:perspective
       sodipodi:type="inkscape:persp3d"
       inkscape:vp_x="0 : 526.18109 : 1"
       inkscape:vp_y="0 : 1000 : 0"
       inkscape:vp_z="744.09448 : 526.18109 : 1"
       inkscape:persp3d-origin="372.04724 : 350.78739 : 1"
       id="perspective9785" />
    <inkscape:perspective
       id="perspective9783"
       inkscape:persp3d-origin="290 : 193.33333 : 1"
       inkscape:vp_z="580 : 290 : 1"
       inkscape:vp_y="0 : 1000 : 0"
       inkscape:vp_x="0 : 290 : 1"
       sodipodi:type="inkscape:persp3d" />
    <defs
       id="defs48974" />
    <sodipodi:namedview
       pagecolor="#ffffff"
       inkscape:zoom="0.61399264"
       inkscape:window-y="26"
       inkscape:window-x="0"
       inkscape:window-width="1012"
       inkscape:window-height="739"
       inkscape:pageshadow="2"
       inkscape:pageopacity="0.0"
       inkscape:cy="250.37448"
       inkscape:cx="475.26707"
       id="namedview4258"
       borderopacity="1.0"
       bordercolor="#666666" />
    <inkscape:perspective
       id="perspective11483"
       inkscape:persp3d-origin="100 : 66.666667 : 1"
       inkscape:vp_z="200 : 100 : 1"
       inkscape:vp_y="0 : 1000 : 0"
       inkscape:vp_x="0 : 100 : 1"
       sodipodi:type="inkscape:persp3d" />
    <inkscape:perspective
       id="perspective12684"
       inkscape:persp3d-origin="180 : 66.666667 : 1"
       inkscape:vp_z="360 : 100 : 1"
       inkscape:vp_y="0 : 1000 : 0"
       inkscape:vp_x="0 : 100 : 1"
       sodipodi:type="inkscape:persp3d" />
  </defs>
  <g
     id="g1327">
    <path
       d="M 66.275,1.768 C 24.94,1.768 1.704,23.139 1.704,66.804 L 1.704,516.927 C 1.704,557.771 22.599,579.156 63.896,579.156 L 515.92,579.156 C 557.227,579.156 578.149,558.841 578.149,516.927 L 578.149,66.804 C 578.149,24.203 557.227,1.768 514.628,1.768 C 514.624,1.768 66.133,1.625 66.275,1.768 z "
       style="fill:#111;stroke:#eee;stroke-width:3.40799999"
       id="path1329" />
  </g>
  <path
     inkscape:connector-curvature="0"
     d="m 212.89643,530.6764 c 80.11132,1e-5 99.99221,-9.92052 130.07255,-24.94078 5.50809,-2.74905 11.38471,-5.68736 18.11792,-8.77509 11.95246,-5.48818 28.53648,-15.69755 68.60707,-16.32504 l 14.2832,-0.2291 77.63115,0.46813 c 0.0199,7e-5 0.0399,-7e-5 0.0598,0 4.52205,0 8.47634,-3.04788 9.63164,-7.41051 0.34868,-1.33468 8.64569,-23.12798 9.95045,-61.62483 0.86655,-25.24956 0.25899,-53.91554 -10.74729,-75.0116 -1.72307,-3.29688 -5.11956,-5.35868 -8.8348,-5.35868 -10.34883,0 -22.37101,5.28895 -37.60043,11.97236 -19.10395,8.39661 -40.75787,17.90877 -62.00333,17.90877 -32.48077,0 -48.96519,-28.33729 -58.53711,-49.64253 -1.63351,-3.63554 -2.38054,-5.29892 -3.86463,-6.90253 -3.90446,-4.22319 -8.20736,-6.37466 -12.819,-6.37465 -5.60768,0 -9.7811,3.22717 -12.17158,6.64359 -9.38269,8.27706 -44.74895,64.74499 -83.46492,84.08803 -10.56796,5.28898 -64.63642,23.89775 -81.33001,27.8819 -83.476697,11.77992 -106.629198,61.5244 -106.629198,61.5244 0,0 -1.030338,12.63075 0.242937,22.22705 2.912357,21.94956 12.241303,29.88114 149.405641,29.88114 z"
     id="path3"
     style="color:#000000;display:inline;overflow:visible;visibility:visible;fill:#ffffff;fill-opacity:1;fill-rule:nonzero;stroke:none;stroke-width:15;marker:none;enable-background:accumulate"
     sodipodi:nodetypes="ccccccscccscsccsccccscc" />
  <path
     inkscape:connector-curvature="0"
     d="m 430.01269,500.56619 13.84491,-0.22909 77.81047,0.45817 c 3.47615,0 6.82288,-0.62749 9.9604,-1.74306 v 21.66382 c 0,5.50809 -4.46228,9.96038 -9.96041,9.96038 l -109.56412,10e-6 c -5.49812,-10e-6 -9.96036,-4.4523 -9.96037,-9.96039 l -1e-5,-17.54022 c 7.47029,-1.4343 16.48443,-2.44029 27.86913,-2.60962 z"
     id="path5"
     style="color:#000000;display:inline;overflow:visible;visibility:visible;fill:#ffffff;fill-opacity:1;fill-rule:nonzero;stroke:none;stroke-width:15;marker:none;enable-background:accumulate" />
  <path
     inkscape:connector-curvature="0"
     d="m 97.71492,309.23979 c 4.18259,7.9067 18.65648,11.69072 26.54891,7.51565 7.89243,-4.17507 10.91694,-14.73598 6.73435,-22.64267 -24.4181,-33.0491 -8.36596,-88.87239 -8.36596,-88.87239 -12.34503,-1.81675 -22.38337,-4.4024 -31.620746,-7.25503 0,0 -22.144105,70.96949 6.703332,111.25448 z"
     id="path5-6"
     style="fill:#ffffff;fill-opacity:1;stroke:none;stroke-width:1"
     sodipodi:nodetypes="csccccc" />
  <path
     inkscape:connector-curvature="0"
     d="m 84.771686,101.94259 c -5.836356,12.0521 -8.067708,24.35419 -6.453005,35.59014 2.680281,18.65077 15.039913,30.81455 25.700299,35.97696 7.80822,3.77249 25.93971,6.9314 45.13395,10.27515 19.50266,3.38349 39.66131,6.89676 49.15804,11.0023 40.89107,17.72699 97.70152,41.56571 139.19181,58.97204 29.64695,12.43838 53.06208,22.25837 56.4186,23.88382 21.06966,6.35744 104.80042,21.92954 104.80042,21.92954 0,0 -67.25705,-53.38279 -84.3885,-64.10268 -3.40874,-1.65949 -25.82077,-14.03105 -54.19254,-29.68124 -39.36111,-21.71576 -93.26093,-51.46668 -132.33809,-72.42633 -8.95313,-4.81331 -23.87913,-18.20425 -38.31744,-31.1397 C 174.81715,89.074027 160.97051,76.652205 152.84825,72.742396 142.97346,67.944043 131.03479,66.916418 120.08954,69.916637 105.14392,74.017838 92.929646,85.095513 84.77103,101.9429 Z m 58.582004,-1.985958 c 13.12537,6.356038 18.436,22.496628 11.83812,36.106358 -6.60274,13.57581 -22.57038,19.48594 -35.67588,13.11824 -13.1351,-6.35065 -18.41108,-22.54802 -11.82152,-36.1407 6.58131,-13.575536 22.55708,-19.428839 35.65928,-13.083898 z"
     id="path11"
     style="fill:#ffffff;fill-opacity:1;stroke:none;stroke-width:1"
     sodipodi:nodetypes="csccccccccccccccccccc" />
  <path
     style="color:#000000;font-style:normal;font-variant:normal;font-weight:normal;font-stretch:normal;font-size:medium;line-height:normal;font-family:sans-serif;font-variant-ligatures:normal;font-variant-position:normal;font-variant-caps:normal;font-variant-numeric:normal;font-variant-alternates:normal;font-feature-settings:normal;text-indent:0;text-align:start;text-decoration:none;text-decoration-line:none;text-decoration-style:solid;text-decoration-color:#000000;letter-spacing:normal;word-spacing:normal;text-transform:none;writing-mode:lr-tb;direction:ltr;text-orientation:mixed;dominant-baseline:auto;baseline-shift:baseline;text-anchor:start;white-space:normal;shape-padding:0;clip-rule:nonzero;display:inline;overflow:visible;visibility:visible;opacity:1;isolation:auto;mix-blend-mode:normal;color-interpolation:sRGB;color-interpolation-filters:linearRGB;solid-color:#000000;solid-opacity:1;vector-effect:none;fill:#ffffff;fill-opacity:1;fill-rule:evenodd;stroke:none;stroke-width:30;stroke-linecap:round;stroke-linejoin:miter;stroke-miterlimit:4;stroke-dasharray:none;stroke-dashoffset:0;stroke-opacity:1;paint-order:normal;color-rendering:auto;image-rendering:auto;shape-rendering:auto;text-rendering:auto;enable-background:accumulate"
     d="m 232.72738,24.563532 c -7.39658,-0.355247 -14.22935,0.439903 -20.41016,2.097656 -24.72323,6.631012 -39.81445,27.607422 -39.81445,27.607422 8.28506,6.187549 15.90901,12.705651 22.11718,19.931641 0,0 11.84689,-14.910935 25.46876,-18.564453 13.62187,-3.653519 35.64665,-2.532826 71.0039,32.335937 39.11951,38.579025 49.07146,59.284415 70.41211,78.839845 26.8761,24.62781 58.75534,25.02707 81.0586,18.22461 11.15162,-3.40123 20.29162,-8.28587 26.9375,-12.70899 3.32293,-2.21156 5.98653,-4.26339 8.21289,-6.30664 1.11317,-1.02162 2.08996,-1.95428 3.30078,-3.51562 0.60541,-0.78068 1.30067,-1.63972 2.17383,-3.57422 0.87316,-1.9345 3.33175,-6.09335 -0.19141,-13.1836 -5.17613,-10.75924 -20.2363,-11.45387 -26.38086,-1.21679 -0.81915,0.69451 -1.90379,1.60263 -3.73633,2.82226 -4.46188,2.96958 -11.30397,6.62016 -19.06836,8.98828 -15.52877,4.73626 -33.20672,5.60672 -52.03711,-11.64843 C 365.31183,129.60716 353.20964,107.0958 312.15707,66.610407 282.18169,37.049166 254.91713,25.629274 232.72738,24.563532 Z M 454.67074,149.87408 c -0.27914,1.73281 -0.25203,3.50117 0.0801,5.22461 -0.48322,-2.15505 -0.40723,-3.8528 -0.0801,-5.22461 z"
     id="path876"
     inkscape:connector-curvature="0"
     sodipodi:nodetypes="ssccsssscccsccccsssccc" />
</svg>

<svg width="580" height="580" viewBox="0 0 580 580" fill="none" xmlns="http://www.w3.org/2000/svg">
<g clip-path="url(#clip0)">
<path d="M66.2751 1.76863C24.9401 1.76863 1.7041 23.1396 1.7041 66.8046V516.928C1.7041 557.772 22.5991 579.157 63.8961 579.157H515.92C557.227 579.157 578.149 558.842 578.149 516.928V66.8046C578.149 24.2036 557.227 1.76863 514.628 1.76863C514.624 1.76863 66.1331 1.62563 66.2751 1.76863Z" fill="#111111" stroke="#EEEEEE" stroke-width="3.408"/>
<path d="M212.897 530.676C293.008 530.676 312.889 520.755 342.969 505.735C348.477 502.986 354.354 500.048 361.087 496.96C373.04 491.472 389.624 481.262 429.694 480.635L443.977 480.406L521.609 480.874C521.628 480.874 521.648 480.874 521.668 480.874C526.19 480.874 530.145 477.826 531.3 473.463C531.649 472.129 539.946 450.335 541.25 411.839C542.117 386.589 541.509 357.923 530.503 336.827C528.78 333.53 525.384 331.468 521.668 331.468C511.319 331.468 499.297 336.757 484.068 343.441C464.964 351.837 443.31 361.349 422.065 361.349C389.584 361.349 373.099 333.012 363.527 311.707C361.894 308.071 361.147 306.408 359.663 304.804C355.758 300.581 351.455 298.43 346.844 298.43C341.236 298.43 337.063 301.657 334.672 305.073C325.29 313.35 289.923 369.818 251.207 389.161C240.639 394.45 186.571 413.059 169.877 417.043C86.4006 428.823 63.2481 478.568 63.2481 478.568C63.2481 478.568 62.2178 491.198 63.4911 500.795C66.4034 522.744 75.7323 530.676 212.897 530.676L212.897 530.676Z" fill="white"/>
<path d="M430.013 500.567L443.858 500.338L521.668 500.796C525.144 500.796 528.491 500.168 531.628 499.053V520.717C531.628 526.225 527.166 530.677 521.668 530.677H412.104C406.606 530.677 402.144 526.225 402.144 520.717L402.144 503.176C409.614 501.742 418.628 500.736 430.013 500.567V500.567Z" fill="white"/>
<path d="M97.7149 309.239C101.898 317.146 116.371 320.93 124.264 316.754C132.156 312.579 135.181 302.018 130.998 294.112C106.58 261.063 122.632 205.239 122.632 205.239C110.287 203.423 100.249 200.837 91.0115 197.984C91.0115 197.984 68.8674 268.954 97.7148 309.239L97.7149 309.239Z" fill="white"/>
<path d="M84.7718 101.942C78.9354 113.994 76.7041 126.296 78.3188 137.532C80.9991 156.183 93.3587 168.347 104.019 173.509C111.827 177.282 129.959 180.441 149.153 183.784C168.656 187.168 188.814 190.681 198.311 194.787C239.202 212.514 296.013 236.352 337.503 253.759C367.15 266.197 390.565 276.017 393.922 277.643C414.991 284 498.722 299.572 498.722 299.572C498.722 299.572 431.465 246.189 414.333 235.469C410.925 233.81 388.513 221.438 360.141 205.788C320.78 184.072 266.88 154.321 227.803 133.362C218.85 128.549 203.924 115.158 189.485 102.222C174.817 89.0736 160.971 76.6517 152.848 72.7419C142.974 67.9436 131.035 66.9159 120.09 69.9162C105.144 74.0174 92.9298 85.095 84.7711 101.942L84.7718 101.942ZM143.354 99.9562C156.479 106.312 161.79 122.453 155.192 136.063C148.589 149.638 132.622 155.548 119.516 149.181C106.381 142.83 101.105 126.633 107.695 113.04C114.276 99.4645 130.252 93.6112 143.354 99.9562V99.9562Z" fill="white"/>
<path fill-rule="evenodd" clip-rule="evenodd" d="M232.728 24.5638C225.331 24.2086 218.498 25.0037 212.317 26.6615C187.594 33.2925 172.503 54.2689 172.503 54.2689C180.788 60.4565 188.412 66.9746 194.62 74.2006C194.62 74.2006 206.467 59.2896 220.089 55.6361C233.711 51.9826 255.736 53.1033 291.093 87.972C330.212 126.551 340.164 147.256 361.505 166.812C388.381 191.44 420.26 191.839 442.563 185.036C453.715 181.635 462.855 176.751 469.501 172.327C472.824 170.116 475.488 168.064 477.714 166.021C478.827 164.999 479.804 164.067 481.015 162.505C481.62 161.725 482.315 160.866 483.188 158.931C484.062 156.997 486.52 152.838 482.997 145.747C477.821 134.988 462.761 134.294 456.616 144.531C455.797 145.225 454.712 146.133 452.88 147.353C448.418 150.322 441.576 153.973 433.812 156.341C418.283 161.077 400.605 161.948 381.774 144.693C365.312 129.607 353.21 107.096 312.157 66.6107C282.182 37.0495 254.917 25.6296 232.728 24.5638ZM454.671 149.874C454.392 151.607 454.419 153.376 454.751 155.099C454.268 152.944 454.344 151.246 454.671 149.874Z" fill="white"/>
</g>
<defs>
<clipPath id="clip0">
<path d="M0 0H580V580H0V0Z" fill="white"/>
</clipPath>
</defs>
</svg>
